apps/scalable/miro-guide-source.svg

<?xml version="1.0" encoding="UTF-8" standalone="no"?>
<!-- Created with Inkscape (http://www.inkscape.org/) -->

<svg
   xmlns:dc="http://purl.org/dc/elements/1.1/"
   xmlns:cc="http://creativecommons.org/ns#"
   xmlns:rdf="http://www.w3.org/1999/02/22-rdf-syntax-ns#"
   xmlns:svg="http://www.w3.org/2000/svg"
   xmlns="http://www.w3.org/2000/svg"
   xmlns:xlink="http://www.w3.org/1999/xlink"
   xmlns:sodipodi="http://sodipodi.sourceforge.net/DTD/sodipodi-0.dtd"
   xmlns:inkscape="http://www.inkscape.org/namespaces/inkscape"
   width="512"
   height="512"
   id="svg5157"
   version="1.1"
   inkscape:version="0.92.3 (2405546, 2018-03-11)"
   sodipodi:docname="miro.svg">
  <defs
     id="defs5159">
    <linearGradient
       id="linearGradient4246">
      <stop
         id="stop4248"
         style="stop-color:#ffffff;stop-opacity:1"
         offset="0" />
      <stop
         id="stop4250"
         style="stop-color:#ffffff;stop-opacity:0.23529412"
         offset="0.23521248" />
      <stop
         id="stop4252"
         style="stop-color:#ffffff;stop-opacity:0.15686275"
         offset="0.76404774" />
      <stop
         id="stop4254"
         style="stop-color:#ffffff;stop-opacity:0.39215687"
         offset="1" />
    </linearGradient>
    <linearGradient
       id="linearGradient3242-7-3-8-9-0-2">
      <stop
         offset="0"
         style="stop-color:#eef87e;stop-opacity:1"
         id="stop3244-5-8-5-3-4-4" />
      <stop
         offset="0.26238"
         style="stop-color:#cde34f;stop-opacity:1"
         id="stop3246-9-5-1-2-5-3" />
      <stop
         offset="0.66093999"
         style="stop-color:#93b723;stop-opacity:1"
         id="stop3248-7-2-0-84-2-0" />
      <stop
         offset="1"
         style="stop-color:#5a7e0d;stop-opacity:1"
         id="stop3250-8-2-8-3-3-4" />
    </linearGradient>
    <radialGradient
       id="XMLID_2_-8"
       cx="299.44821"
       cy="-290.5918"
       r="17.1528"
       fx="297.44989"
       fy="-289.9133"
       gradientTransform="matrix(0.8232,0.2312,0.2703,-0.9626,-96.2274,-315.3433)"
       gradientUnits="userSpaceOnUse">
      <stop
         offset="0"
         style="stop-color:#000000;stop-opacity:1;"
         id="stop228-2" />
      <stop
         offset="1"
         style="stop-color:#000000;stop-opacity:0;"
         id="stop230-7" />
    </radialGradient>
    <linearGradient
       id="linearGradient2867-449-88-871-390-598-476-591-434-148-57-177-3-8-6">
      <stop
         offset="0"
         style="stop-color:#5bc2ee;stop-opacity:1;"
         id="stop3750-8-9-0" />
      <stop
         offset="0.26238"
         style="stop-color:#42baea;stop-opacity:1"
         id="stop3752-3-2-8" />
      <stop
         offset="0.704952"
         style="stop-color:#3689e6;stop-opacity:1"
         id="stop3754-7-2-7" />
      <stop
         offset="1"
         style="stop-color:#2b63a0;stop-opacity:1"
         id="stop3756-9-3-6" />
    </linearGradient>
    <linearGradient
       id="linearGradient3820-7-2-8-6">
      <stop
         id="stop3822-2-6-5-0"
         offset="0"
         style="stop-color:#3d3d3d;stop-opacity:1;" />
      <stop
         style="stop-color:#686868;stop-opacity:0.49803922;"
         offset="0.5"
         id="stop3864-8-7-4-1" />
      <stop
         id="stop3824-1-2-6-7"
         offset="1"
         style="stop-color:#686868;stop-opacity:0;" />
    </linearGradient>
    <linearGradient
       inkscape:collect="always"
       xlink:href="#linearGradient4246"
       id="linearGradient5267"
       gradientUnits="userSpaceOnUse"
       gradientTransform="matrix(2.7567564,0,0,2.7567564,-133.25186,-67.905563)"
       x1="71.204407"
       y1="6.8949885"
       x2="71.204407"
       y2="44.00914" />
    <radialGradient
       inkscape:collect="always"
       xlink:href="#linearGradient3242-7-3-8-9-0-2"
       id="radialGradient5270"
       gradientUnits="userSpaceOnUse"
       gradientTransform="matrix(0,3.5027864,-3.3090405,-4.0448548e-8,92.459105,-62.015358)"
       cx="18.164446"
       cy="8.449769"
       fx="8.894803"
       fy="8.5985041"
       r="19.99999" />
    <radialGradient
       inkscape:collect="always"
       xlink:href="#linearGradient3820-7-2-8-6"
       id="radialGradient5282"
       gradientUnits="userSpaceOnUse"
       gradientTransform="matrix(1,0,0,0.1666667,0,155.14216)"
       cx="99.157013"
       cy="186.17059"
       fx="99.157013"
       fy="186.17059"
       r="62.769119" />
  </defs>
  <sodipodi:namedview
     id="base"
     pagecolor="#ffffff"
     bordercolor="#666666"
     borderopacity="1.0"
     inkscape:pageopacity="0.0"
     inkscape:pageshadow="2"
     inkscape:zoom="0.2734375"
     inkscape:cx="795.03261"
     inkscape:cy="-116.09088"
     inkscape:current-layer="layer1"
     showgrid="true"
     inkscape:document-units="px"
     inkscape:grid-bbox="true"
     inkscape:window-width="1366"
     inkscape:window-height="718"
     inkscape:window-x="0"
     inkscape:window-y="25"
     inkscape:window-maximized="1" />
  <metadata
     id="metadata5162">
    <rdf:RDF>
      <cc:Work
         rdf:about="">
        <dc:format>image/svg+xml</dc:format>
        <dc:type
           rdf:resource="http://purl.org/dc/dcmitype/StillImage" />
        <dc:title></dc:title>
      </cc:Work>
    </rdf:RDF>
  </metadata>
  <g
     id="layer1"
     inkscape:label="Layer 1"
     inkscape:groupmode="layer"
     transform="translate(0,448)">
    <g
       id="g890">
      <path
         id="path1165"
         d="m 432.91328,-391.52504 c 102.1929,88.5735 105.82677,249.69956 8.11678,359.89803 C 343.32007,78.57148 181.27962,96.10044 79.086741,7.52694 -23.106209,-81.04888 -26.740029,-242.17262 70.969941,-352.37342 168.67988,-462.57187 330.72033,-480.10086 432.91328,-391.52504 Z"
         inkscape:connector-curvature="0"
         style="fill:#c6262e;fill-opacity:1;stroke-width:11.10954762" />
      <path
         id="path1167"
         d="m 511.63552,-223.096 c -1.55136,61.31187 -25.16124,124.15509 -70.96639,175.81345 C 342.95911,62.91591 180.91867,80.44488 78.725761,-8.12859 30.827131,-49.64472 4.4968216,-107.07704 0.19383166,-167.77218 0.79908166,-101.41479 27.117411,-37.51733 79.078691,7.51763 181.27157,96.09344 343.31972,78.55518 441.02203,-31.634 c 49.70494,-56.05922 73.00501,-125.29079 70.61349,-191.462 z"
         inkscape:connector-curvature="0"
         style="opacity:1;fill:#000000;fill-opacity:0.49019608;stroke-width:11.10954762" />
      <g
         style="fill:#000000;fill-opacity:0.49019608"
         transform="matrix(0.51017905,0,0,0.51017905,13.857249,-434.32928)"
         id="g71">
        <g
           style="overflow:visible;fill:#000000;fill-opacity:0.49019608"
           id="g69"
           overflow="visible">
          <g
             style="fill:#000000;fill-opacity:0.49019608"
             id="g67">
            <g
               style="fill:#000000;fill-opacity:0.49019608"
               id="g65">
              <path
                 style="fill:#000000;fill-opacity:0.49019608"
                 inkscape:connector-curvature="0"
                 id="path63"
                 d="m 656.1,419.7 c 5.65,4.75 8.5,12.1 8.5,22.15 V 705.3 h 155 V 411.45 c 0,-31.2 -9.25,-54.45 -27.8,-69.7 -8.35,-6.95 -18.6,-12.3 -30.85,-16.1 q -4.5,-1.55 -6.85,-2.25 -4.15,-1.25 -7.6,-1.35 H 208.05 V 705.3 H 359.1 V 457.2 c 0,-16.95 3.15,-28.7 9.4,-35.3 6.3,-6.55 16.65,-9.8 31.05,-9.8 11.6,0 20.4,2.55 26.35,7.6 5.65,4.75 8.5,12.1 8.5,22.15 V 705.3 H 589.35 V 457.2 c 0,-16.95 3.15,-28.7 9.4,-35.3 6.25,-6.55 16.6,-9.8 31.05,-9.8 11.9,0 20.65,2.55 26.3,7.6 z" />
            </g>
          </g>
        </g>
      </g>
      <g
         id="ico-shadow"
         transform="matrix(0.51017905,0,0,0.51017905,-6.142752,-454.32928)">
        <g
           overflow="visible"
           id="Symbole.__2022_1"
           style="overflow:visible">
          <g
             id="Calque.__203">
            <g
               id="shape58">
              <path
                 d="m 656.1,419.7 c 5.65,4.75 8.5,12.1 8.5,22.15 V 705.3 h 155 V 411.45 c 0,-31.2 -9.25,-54.45 -27.8,-69.7 -8.35,-6.95 -18.6,-12.3 -30.85,-16.1 q -4.5,-1.55 -6.85,-2.25 -4.15,-1.25 -7.6,-1.35 H 208.05 V 705.3 H 359.1 V 457.2 c 0,-16.95 3.15,-28.7 9.4,-35.3 6.3,-6.55 16.65,-9.8 31.05,-9.8 11.6,0 20.4,2.55 26.35,7.6 5.65,4.75 8.5,12.1 8.5,22.15 V 705.3 H 589.35 V 457.2 c 0,-16.95 3.15,-28.7 9.4,-35.3 6.25,-6.55 16.6,-9.8 31.05,-9.8 11.9,0 20.65,2.55 26.3,7.6 z"
                 id="path53"
                 inkscape:connector-curvature="0"
                 style="fill:#ffffff;fill-opacity:1" />
            </g>
          </g>
        </g>
      </g>
    </g>
  </g>
</svg>

<?xml version="1.0" encoding="UTF-8" standalone="no"?>
<!-- Created with Inkscape (http://www.inkscape.org/) -->

<svg
   xmlns:dc="http://purl.org/dc/elements/1.1/"
   xmlns:cc="http://creativecommons.org/ns#"
   xmlns:rdf="http://www.w3.org/1999/02/22-rdf-syntax-ns#"
   xmlns:svg="http://www.w3.org/2000/svg"
   xmlns="http://www.w3.org/2000/svg"
   xmlns:xlink="http://www.w3.org/1999/xlink"
   xmlns:sodipodi="http://sodipodi.sourceforge.net/DTD/sodipodi-0.dtd"
   xmlns:inkscape="http://www.inkscape.org/namespaces/inkscape"
   width="500"
   height="500"
   id="svg5157"
   version="1.1"
   inkscape:version="0.91 r13725"
   sodipodi:docname="miro-guide-source.svg">
  <defs
     id="defs5159">
    <linearGradient
       id="linearGradient4246">
      <stop
         id="stop4248"
         style="stop-color:#ffffff;stop-opacity:1"
         offset="0" />
      <stop
         id="stop4250"
         style="stop-color:#ffffff;stop-opacity:0.23529412"
         offset="0.23521248" />
      <stop
         id="stop4252"
         style="stop-color:#ffffff;stop-opacity:0.15686275"
         offset="0.76404774" />
      <stop
         id="stop4254"
         style="stop-color:#ffffff;stop-opacity:0.39215687"
         offset="1" />
    </linearGradient>
    <linearGradient
       id="linearGradient3242-7-3-8-9-0-2">
      <stop
         offset="0"
         style="stop-color:#eef87e;stop-opacity:1"
         id="stop3244-5-8-5-3-4-4" />
      <stop
         offset="0.26238"
         style="stop-color:#cde34f;stop-opacity:1"
         id="stop3246-9-5-1-2-5-3" />
      <stop
         offset="0.66093999"
         style="stop-color:#93b723;stop-opacity:1"
         id="stop3248-7-2-0-84-2-0" />
      <stop
         offset="1"
         style="stop-color:#5a7e0d;stop-opacity:1"
         id="stop3250-8-2-8-3-3-4" />
    </linearGradient>
    <radialGradient
       id="XMLID_2_-8"
       cx="299.44821"
       cy="-290.5918"
       r="17.1528"
       fx="297.44989"
       fy="-289.9133"
       gradientTransform="matrix(0.8232,0.2312,0.2703,-0.9626,-96.2274,-315.3433)"
       gradientUnits="userSpaceOnUse">
      <stop
         offset="0"
         style="stop-color:#000000;stop-opacity:1;"
         id="stop228-2" />
      <stop
         offset="1"
         style="stop-color:#000000;stop-opacity:0;"
         id="stop230-7" />
    </radialGradient>
    <linearGradient
       id="linearGradient2867-449-88-871-390-598-476-591-434-148-57-177-3-8-6">
      <stop
         offset="0"
         style="stop-color:#5bc2ee;stop-opacity:1;"
         id="stop3750-8-9-0" />
      <stop
         offset="0.26238"
         style="stop-color:#42baea;stop-opacity:1"
         id="stop3752-3-2-8" />
      <stop
         offset="0.704952"
         style="stop-color:#3689e6;stop-opacity:1"
         id="stop3754-7-2-7" />
      <stop
         offset="1"
         style="stop-color:#2b63a0;stop-opacity:1"
         id="stop3756-9-3-6" />
    </linearGradient>
    <linearGradient
       id="linearGradient3820-7-2-8-6">
      <stop
         id="stop3822-2-6-5-0"
         offset="0"
         style="stop-color:#3d3d3d;stop-opacity:1;" />
      <stop
         style="stop-color:#686868;stop-opacity:0.49803922;"
         offset="0.5"
         id="stop3864-8-7-4-1" />
      <stop
         id="stop3824-1-2-6-7"
         offset="1"
         style="stop-color:#686868;stop-opacity:0;" />
    </linearGradient>
    <linearGradient
       inkscape:collect="always"
       xlink:href="#linearGradient4246"
       id="linearGradient5267"
       gradientUnits="userSpaceOnUse"
       gradientTransform="matrix(2.7567564,0,0,2.7567564,-133.25186,-67.905563)"
       x1="71.204407"
       y1="6.8949885"
       x2="71.204407"
       y2="44.00914" />
    <radialGradient
       inkscape:collect="always"
       xlink:href="#linearGradient3242-7-3-8-9-0-2"
       id="radialGradient5270"
       gradientUnits="userSpaceOnUse"
       gradientTransform="matrix(0,3.5027864,-3.3090405,-4.0448548e-8,92.459105,-62.015358)"
       cx="18.164446"
       cy="8.449769"
       fx="8.894803"
       fy="8.5985041"
       r="19.99999" />
    <radialGradient
       inkscape:collect="always"
       xlink:href="#linearGradient3820-7-2-8-6"
       id="radialGradient5282"
       gradientUnits="userSpaceOnUse"
       gradientTransform="matrix(1,0,0,0.1666667,0,155.14216)"
       cx="99.157013"
       cy="186.17059"
       fx="99.157013"
       fy="186.17059"
       r="62.769119" />
  </defs>
  <sodipodi:namedview
     id="base"
     pagecolor="#ffffff"
     bordercolor="#666666"
     borderopacity="1.0"
     inkscape:pageopacity="0.0"
     inkscape:pageshadow="2"
     inkscape:zoom="0.77339804"
     inkscape:cx="23.954965"
     inkscape:cy="257.28882"
     inkscape:current-layer="layer1"
     showgrid="true"
     inkscape:document-units="px"
     inkscape:grid-bbox="true"
     inkscape:window-width="1366"
     inkscape:window-height="715"
     inkscape:window-x="0"
     inkscape:window-y="24"
     inkscape:window-maximized="1" />
  <metadata
     id="metadata5162">
    <rdf:RDF>
      <cc:Work
         rdf:about="">
        <dc:format>image/svg+xml</dc:format>
        <dc:type
           rdf:resource="http://purl.org/dc/dcmitype/StillImage" />
        <dc:title />
      </cc:Work>
    </rdf:RDF>
  </metadata>
  <g
     id="layer1"
     inkscape:label="Layer 1"
     inkscape:groupmode="layer"
     transform="translate(0,436)">
    <g
       id="g4181">
      <circle
         r="237.5"
         cy="-185.13695"
         cx="253.01595"
         id="path4179"
         style="opacity:1;fill:#f03916;fill-opacity:1;stroke:none;stroke-width:5;stroke-linecap:round;stroke-miterlimit:4;stroke-dasharray:none;stroke-opacity:1" />
      <g
         id="ico-shadow"
         transform="matrix(0.50158214,0,0,0.50158214,-5.0368126,-439.35782)">
        <g
           overflow="visible"
           id="Symbole.__2022_1"
           style="overflow:visible">
          <g
             id="Calque.__203">
            <g
               id="shape58">
              <path
                 d="m 656.1,419.7 c 5.65,4.75 8.5,12.1 8.5,22.15 l 0,263.45 155,0 0,-293.85 c 0,-31.2 -9.25,-54.45 -27.8,-69.7 -8.35,-6.95 -18.6,-12.3 -30.85,-16.1 q -4.5,-1.55 -6.85,-2.25 -4.15,-1.25 -7.6,-1.35 l -538.45,0 0,383.25 151.05,0 0,-248.1 c 0,-16.95 3.15,-28.7 9.4,-35.3 6.3,-6.55 16.65,-9.8 31.05,-9.8 11.6,0 20.4,2.55 26.35,7.6 5.65,4.75 8.5,12.1 8.5,22.15 l 0,263.45 154.95,0 0,-248.1 c 0,-16.95 3.15,-28.7 9.4,-35.3 6.25,-6.55 16.6,-9.8 31.05,-9.8 11.9,0 20.65,2.55 26.3,7.6 z"
                 id="path53"
                 inkscape:connector-curvature="0"
                 style="fill:#ffffff;fill-opacity:1" />
            </g>
          </g>
        </g>
      </g>
    </g>
  </g>
</svg>
